dist/assets/common/share_icon02.svg

<svg width="17" height="17" viewBox="0 0 17 17" fill="none" xmlns="http://www.w3.org/2000/svg">
<g clip-path="url(#clip0_52_628)">
<path d="M4.97965 0.059569C4.07525 0.102239 3.45764 0.246569 2.91772 0.458729C2.35893 0.676499 1.88531 0.968729 1.41407 1.44167C0.942834 1.91461 0.652644 2.38857 0.436404 2.94821C0.227134 3.48932 0.0853538 4.10744 0.0454038 5.01235C0.00545379 5.91726 -0.00338622 6.20813 0.00103378 8.51639C0.00545378 10.8246 0.0156538 11.114 0.0595138 12.0208C0.102694 12.925 0.246514 13.5424 0.458674 14.0825C0.676784 14.6413 0.968674 15.1148 1.44178 15.5862C1.91489 16.0576 2.38851 16.3471 2.94951 16.5637C3.49011 16.7726 4.1084 16.9151 5.01314 16.9547C5.91788 16.9943 6.20909 17.0035 8.51667 16.9991C10.8243 16.9946 11.1148 16.9844 12.0214 16.9414C12.928 16.8984 13.5422 16.7536 14.0825 16.5424C14.6413 16.3238 15.1151 16.0324 15.5861 15.5591C16.0572 15.0859 16.3472 14.6116 16.5633 14.0516C16.7727 13.511 16.915 12.8927 16.9543 11.9886C16.9939 11.0814 17.0032 10.7917 16.9988 8.48375C16.9944 6.17583 16.984 5.88649 16.941 4.98005C16.898 4.07361 16.754 3.45804 16.542 2.91761C16.3236 2.35882 16.032 1.88571 15.5591 1.41396C15.0862 0.942209 14.6115 0.652359 14.0517 0.436799C13.5108 0.227529 12.8928 0.084899 11.9881 0.045799C11.0833 0.00669904 10.7921 -0.00333096 8.4837 0.00108904C6.17526 0.00550904 5.88626 0.015369 4.97965 0.059569ZM5.07893 15.4255C4.25018 15.3895 3.80019 15.2518 3.50031 15.1365C3.10319 14.9835 2.82031 14.7986 2.52145 14.5026C2.22259 14.2066 2.03899 13.9227 1.88395 13.5265C1.7675 13.2266 1.62725 12.7771 1.58849 11.9483C1.54633 11.0526 1.53749 10.7837 1.53256 8.51435C1.52763 6.24502 1.5363 5.97642 1.57557 5.08035C1.61093 4.25228 1.74948 3.80178 1.86457 3.50207C2.01757 3.10444 2.20185 2.82207 2.4985 2.52338C2.79515 2.22469 3.0782 2.04075 3.47481 1.88571C3.77435 1.76875 4.22383 1.62969 5.05224 1.59025C5.94865 1.54775 6.21725 1.53925 8.48624 1.53432C10.7552 1.52939 11.0245 1.53789 11.9213 1.57733C12.7493 1.61337 13.2 1.75056 13.4994 1.86633C13.8967 2.01933 14.1794 2.2031 14.4781 2.50026C14.7768 2.79742 14.9609 3.07945 15.1159 3.47691C15.233 3.7756 15.3721 4.22491 15.4112 5.05383C15.4539 5.95024 15.4636 6.21901 15.4676 8.48783C15.4717 10.7566 15.4637 11.0261 15.4245 11.9218C15.3882 12.7506 15.2509 13.2007 15.1355 13.501C14.9825 13.8979 14.798 14.181 14.5012 14.4795C14.2044 14.778 13.9217 14.9619 13.5249 15.117C13.2257 15.2338 12.7757 15.3732 11.948 15.4126C11.0515 15.4548 10.7829 15.4636 8.5131 15.4685C6.24326 15.4735 5.97551 15.4643 5.0791 15.4255M12.0083 3.95716C12.0086 4.15891 12.0688 4.35603 12.1812 4.52359C12.2935 4.69115 12.4531 4.82162 12.6396 4.8985C12.8261 4.97538 13.0313 4.99521 13.2291 4.9555C13.4269 4.91579 13.6085 4.8183 13.7509 4.67538C13.8933 4.53246 13.9901 4.35052 14.0291 4.15257C14.0681 3.95463 14.0475 3.74956 13.9699 3.56332C13.8923 3.37707 13.7613 3.21801 13.5933 3.10625C13.4254 2.99449 13.228 2.93506 13.0263 2.93546C12.7558 2.936 12.4966 3.04394 12.3057 3.23553C12.1148 3.42713 12.0079 3.6867 12.0083 3.95716ZM4.1356 8.50857C4.14036 10.9192 6.09808 12.8689 8.50817 12.8643C10.9183 12.8597 12.8694 10.9022 12.8648 8.49157C12.8602 6.08097 10.9019 4.13073 8.49151 4.13549C6.08108 4.14025 4.13101 6.09831 4.1356 8.50857ZM5.66662 8.50551C5.66552 7.94512 5.83061 7.39699 6.14102 6.93042C6.45144 6.46386 6.89323 6.09982 7.41054 5.88435C7.92785 5.66887 8.49743 5.61163 9.04727 5.71987C9.59711 5.82811 10.1025 6.09696 10.4995 6.49243C10.8966 6.8879 11.1674 7.39223 11.2779 7.94164C11.3883 8.49104 11.3333 9.06085 11.1199 9.57901C10.9064 10.0972 10.5442 10.5404 10.0788 10.8527C9.61349 11.1649 9.06601 11.3322 8.50562 11.3333C8.13353 11.3341 7.76492 11.2615 7.42085 11.1199C7.07679 10.9782 6.76401 10.7701 6.50037 10.5075C6.23674 10.2449 6.02741 9.93293 5.88436 9.58943C5.7413 9.24593 5.66732 8.87761 5.66662 8.50551Z" fill="black"/>
</g>
<defs>
<clipPath id="clip0_52_628">
<rect width="17" height="17" fill="white"/>
</clipPath>
</defs>
</svg>

<?xml version="1.0" encoding="UTF-8"?>
<svg id="_レイヤー_1" data-name="レイヤー_1" xmlns="http://www.w3.org/2000/svg" xmlns:xlink="http://www.w3.org/1999/xlink" version="1.1" viewBox="0 0 17 17">
  <!-- Generator: Adobe Illustrator 30.1.0, SVG Export Plug-In . SVG Version: 2.1.1 Build 136)  -->
  <defs>
    <style>
      .st0 {
        fill: none;
      }

      .st1 {
        fill: #eceae4;
      }

      .st2 {
        clip-path: url(#clippath);
      }
    </style>
    <clipPath id="clippath">
      <rect class="st0" width="17" height="17"/>
    </clipPath>
  </defs>
  <g class="st2">
    <path class="st1" d="M5,0c-.9,0-1.5.2-2.1.4-.6.2-1,.5-1.5,1-.5.5-.8.9-1,1.5-.2.5-.4,1.2-.4,2.1C0,5.9,0,6.2,0,8.5c0,2.3,0,2.6,0,3.5,0,.9.2,1.5.4,2.1.2.6.5,1,1,1.5.5.5.9.8,1.5,1,.5.2,1.2.4,2.1.4.9,0,1.2,0,3.5,0,2.3,0,2.6,0,3.5,0,.9,0,1.5-.2,2.1-.4.6-.2,1-.5,1.5-1,.5-.5.8-.9,1-1.5.2-.5.4-1.2.4-2.1,0-.9,0-1.2,0-3.5,0-2.3,0-2.6,0-3.5,0-.9-.2-1.5-.4-2.1-.2-.6-.5-1-1-1.5-.5-.5-.9-.8-1.5-1-.5-.2-1.2-.4-2.1-.4C11.1,0,10.8,0,8.5,0c-2.3,0-2.6,0-3.5,0ZM5.1,15.4c-.8,0-1.3-.2-1.6-.3-.4-.2-.7-.3-1-.6-.3-.3-.5-.6-.6-1-.1-.3-.3-.7-.3-1.6,0-.9,0-1.2,0-3.4,0-2.3,0-2.5,0-3.4,0-.8.2-1.3.3-1.6.2-.4.3-.7.6-1,.3-.3.6-.5,1-.6.3-.1.7-.3,1.6-.3.9,0,1.2,0,3.4,0,2.3,0,2.5,0,3.4,0,.8,0,1.3.2,1.6.3.4.2.7.3,1,.6.3.3.5.6.6,1,.1.3.3.7.3,1.6,0,.9,0,1.2,0,3.4,0,2.3,0,2.5,0,3.4,0,.8-.2,1.3-.3,1.6-.2.4-.3.7-.6,1-.3.3-.6.5-1,.6-.3.1-.7.3-1.6.3-.9,0-1.2,0-3.4,0-2.3,0-2.5,0-3.4,0M12,4c0,.2,0,.4.2.6.1.2.3.3.5.4.2,0,.4,0,.6,0,.2,0,.4-.1.5-.3.1-.1.2-.3.3-.5,0-.2,0-.4,0-.6,0-.2-.2-.3-.4-.5-.2-.1-.4-.2-.6-.2-.3,0-.5.1-.7.3-.2.2-.3.5-.3.7ZM4.1,8.5c0,2.4,2,4.4,4.4,4.4,2.4,0,4.4-2,4.4-4.4,0-2.4-2-4.4-4.4-4.4-2.4,0-4.4,2-4.4,4.4ZM5.7,8.5c0-.6.2-1.1.5-1.6.3-.5.8-.8,1.3-1,.5-.2,1.1-.3,1.6-.2s1.1.4,1.5.8c.4.4.7.9.8,1.4.1.5,0,1.1-.2,1.6-.2.5-.6,1-1,1.3-.5.3-1,.5-1.6.5-.4,0-.7,0-1.1-.2-.3-.1-.7-.3-.9-.6-.3-.3-.5-.6-.6-.9-.1-.3-.2-.7-.2-1.1Z"/>
  </g>
</svg>
